X:1
T: Da Forfeit o' da Ship
C:
R:Reel
Q: 232
K:D
M:4/4
L:1/8
|:AB|d2 dB dA F2|AB AF ED EF|((3AAA) AF AB de|f2 ed B2 AB|
d2 dB dA F2|AB AF ED EF|((3AAA) AF AB de|f2 ed B2 AB|
d2 fd ad fd|d2 fd eA Af|a2 ae fd ef|dB AF E2 AB|
d2 fd ad fd|d2 fd eA Af|a2 ae fd ef|dB AF E2:|
